src/Pure-Dark/16/symbolic/status/prime-indicator-hybrid-symbolic.svg

<svg xmlns="http://www.w3.org/2000/svg" width="16" height="16" version="1">
 <path style="fill:#f2f2f2" d="M 5,1 C 3.892,1 3,1.892 3,3 v 10 c 0,1.108 0.892,2 2,2 h 5 V 9 H 8 v 3 H 6 V 9 7 4 h 2 v 3 h 2 V 1 Z m 5,6 v 2 h 2 v 3 h 2 V 4 h -2 v 3 z"/>
</svg>

<?xml version="1.0" encoding="UTF-8" standalone="no"?>
<svg
   width="16"
   height="16"
   version="1"
   id="svg1"
   sodipodi:docname="prime-indicator-hybrid-symbolic.svg"
   inkscape:version="1.4.2 (ebf0e940d0, 2025-05-08)"
   xmlns:inkscape="http://www.inkscape.org/namespaces/inkscape"
   xmlns:sodipodi="http://sodipodi.sourceforge.net/DTD/sodipodi-0.dtd"
   xmlns="http://www.w3.org/2000/svg"
   xmlns:svg="http://www.w3.org/2000/svg">
  <defs
     id="defs1">
     <style
        id="current-color-scheme"
        type="text/css">
        .ColorScheme-Text { color:#f2f2f2; }
        .ColorScheme-NeutralText { color:#f67400; }
        .ColorScheme-PositiveText { color:#37c837; }
        .ColorScheme-NegativeText { color:#f44336; }
     </style>
  </defs>
  <sodipodi:namedview
     id="namedview1"
     pagecolor="#ffffff"
     bordercolor="#000000"
     borderopacity="0.25"
     inkscape:showpageshadow="2"
     inkscape:pageopacity="0.0"
     inkscape:pagecheckerboard="0"
     inkscape:deskcolor="#d1d1d1"
     inkscape:zoom="49.6875"
     inkscape:cx="8"
     inkscape:cy="8"
     inkscape:window-width="1920"
     inkscape:window-height="1010"
     inkscape:window-x="0"
     inkscape:window-y="0"
     inkscape:window-maximized="1"
     inkscape:current-layer="svg1" />
  <path
     id="path1"
     style="fill:currentColor"
     class="ColorScheme-Text"
     d="M 5 1 C 3.892 1 3 1.892 3 3 L 3 13 C 3 14.108 3.892 15 5 15 L 10 15 L 10 9 L 8 9 L 8 12 L 6 12 L 6 9 L 6 7 L 6 4 L 8 4 L 8 7 L 10 7 L 10 1 L 5 1 z M 10 7 L 10 9 L 12 9 L 12 12 L 14 12 L 14 4 L 12 4 L 12 7 L 10 7 z " />
</svg>
